!!!COM: Robert Franz
!!!CNT: Deutscher
!!!TXO: Deutsche 
!!!OTL: Im Herbst
!!!OPS: Op. 17
!!!ONM: No. 6
!!!ONB: Original key: c minor
!!!LYR: Wolfgang Muller
!!!ENC: Brian Bice
!!!YOR: Vocal Album, G. Schirmer, Inc., 1907
!!!ODT: 1860/
!!NB: Vocal melody and text only encoded.
**kern	**silbe
*clefG2	*
*k[b-e-a-d-g-]	*
*M4/4	*
=0	=0
2.r	.
8r	.
{8f	{Die
=1	=1
4B-	Hai-
8c	-de
8c	ist
4d-	braun,
4e-	einst
=2	=2
2f	blu2h-
4gn	-te
4an	sie
=3	=3
2.b-}	roth;}
8r	.
{8f	{die
=4	=4
4B-	Bir-
8c	-ke
8c	ist
4d-	kahl,
4e-	gru2n
=5	=5
2f	war
4gn	einst
4an	ihr
=6	=6
2.b-}	Kleid;}
{4dd-	{eisnt
=7	=7
4cc	ging
8b-	ich
8b-	zu
4a-	zwei'n,
4f	jetzt
=8	=8
(8a-	geh'
8gn)	|
8f	ich
8en	al-
4.f}	-lein;}
8r	.
=9	=9
{4g-	{weh
16e-	u2-
16f	-ber
8g-	den
(8f	Herbst
8b-)	|
8an	und
8b-	die
=10	=10
4ee-	gram-
8dd-	-vol-
8cc	-le
4dd-}	Zeit!}
8r	.
{8f	{o
=11	=11
4b-}	weh,}
8r	.
{8dd-	{o
4.cc}	weh!}
8r	.
=12	=12
{4f	{weh
16gn	u2-
16gn	-ber
8an	den
4b-	Herbst
8cc	und
8dd-	die
=13	=13
(8ff	gram-
8ee-)	|
8cc	-vol-
8dd-	-le
4b-}	Zeit!}
4r	.
=14	=14
2r	.
4r	.
8r	.
{8f	{Einst
=15	=15
4B-	blu2h-
8c	-ten
8c	die
4d-	Ro-
8e-	-sen,
8e-	jetzt
=16	=16
2f	wel-
4gn	-ken
4an	sie
=17	=17
2.b-}	all',}
8r	.
{8f	{voll
=18	=18
4B-	Duft
8c	war
8c	die
4d-	Blu-
8e-	-me,
8e-	nun
=19	=19
2f	zog
4gn	er
4an	her-
=20	=20
2.b-}	-aus;}
{4dd	{einst
=21	=21
4cc	pflu2ckt'
8b-	ich
8b-	zu
4a-	zwei'n,
4f	jetzt
=22	=22
(8a-	pflu2ck'
8gn)	|
8f	ich
8en	al-
4.f}	-lein;}
8r	.
=23	=23
{4g-	{das
(12e-	wird
12f)	|
12g-	ein
8f	du2r-
8b-	|
8an	-rer,
8b-	ein
=24	=24
4ee-	duft-
8dd-	-lo-
8cc	-ser
4dd-}	Strauss!}
8r	.
{8f	{o
=25	=25
4b-}	weh,}
8r	.
{8dd-	{o
4.cc}	weh!}
8r	.
=26	=26
{4f	{Das
8gn	wird
8an	ein
4b-	du2r-
8cc	-rer,
8dd-	ein
=27	=27
(8ff	duft-
8ee-)	|
8cc	-lo-
8dd-	-ser
4b-}	Strauss!}
4r	.
=28	=28
2r	.
4r	.
8r	.
{8f	{Die
=29	=29
4B-	Welt
8c	ist
8c	so
4d-	o2d',
4e-	sie
=30	=30
2f	war
4gn	einst
4cc	so
=31	=31
2.b-}	scho2n,}
8r	.
{8f	{ich
=32	=32
4B-	war
8c	einst
8c	so
4d-	reich,
(12e-	so
12f	|
12g-)	|
=33	=33
(4f	reich,
8b-)}	|}
8r	.
2r	.
=35	=35
{2cc	{jetzt
4f	bin
8gn	ich
8an	voll
=36	=36
2.b-}	Noth!}
{4dd-	{einst
=37	=37
4cc	ging
8b-	ich
8b-	zu
4a-	zwei'n
4cc	jetzt
=38	=38
4f	geh'
8b-	ich
8dd-	al-
[2f	-lein
=39	=39
4f]}	|}
4r	.
{4f	{mein
8gn	Lieb
8an	ist
=40	=40
4b-}	falsch!}
8r	.
{8f	{o
4ee-	wa2-
8dd-	-re
8dd-	ich
=41	=41
2cc}	todt!}
{4f	{mein
8b-	Lieb
8dd-	ist
=42	=42
2.gg-;}	falsch!}
{4B-	{o
=43	=43
2d-	wa2-
4cc	-re
4cc	ich
=44	=44
2.B-}	todt!}
8r	.
*-	*-
